Sources/FrostedUI/Resources/Icons.xcassets/sparkleFilled12.imageset/sparkle-filled-12.svg

<svg width="12" height="12" viewBox="0 0 12 12" fill="none" xmlns="http://www.w3.org/2000/svg" data-fui-icon="true">
  <g clip-path="url(#clip0_5386_20)">
    <path
      d="M8.99988 6C8.75088 6 8.52966 6.16055 8.453 6.39746L7.95105 7.95117L6.39734 8.4541C6.16045 8.53075 5.9999 8.75103 5.99988 9C5.99988 9.249 6.16043 9.46925 6.39734 9.5459L7.95105 10.0488L8.453 11.6025C8.52966 11.8394 8.75088 12 8.99988 12C9.24881 11.9999 9.46914 11.8394 9.54578 11.6025L10.0487 10.0488L11.6024 9.5459C11.8392 9.46918 11.9999 9.24892 11.9999 9C11.9999 8.75109 11.8392 8.5308 11.6024 8.4541L10.0487 7.95117L9.54578 6.39746C9.46912 6.16064 9.24879 6.00007 8.99988 6ZM3.91687 0C3.59077 0 3.30103 0.210426 3.20007 0.520508L2.59949 2.36426C2.56315 2.47587 2.47575 2.56425 2.36414 2.60059L0.519409 3.2002C0.209405 3.3012 -0.000123024 3.59094 -0.00012207 3.91699C-2.76566e-05 4.2429 0.209562 4.53179 0.519409 4.63281L2.36414 5.2334C2.47568 5.26972 2.56311 5.35723 2.59949 5.46875L3.20007 7.31348C3.30103 7.62356 3.59077 7.83301 3.91687 7.83301C4.24277 7.8328 4.53178 7.6234 4.63269 7.31348L5.23328 5.46875C5.26966 5.35723 5.35708 5.26972 5.46863 5.2334L7.31335 4.63281C7.6232 4.53179 7.83279 4.2429 7.83289 3.91699C7.83289 3.59094 7.62336 3.30119 7.31335 3.2002L5.46863 2.60059C5.35701 2.56425 5.26962 2.47587 5.23328 2.36426L4.63269 0.520508C4.53178 0.21058 4.24277 0.000209146 3.91687 0Z"
      fill="currentColor"
    />
  </g>
  <defs>
    <clipPath id="clip0_5386_20"><path fill="currentColor" d="M0 0H12V12H0z" /></clipPath>
  </defs>
</svg>

<svg xmlns="http://www.w3.org/2000/svg" width="12" height="12" fill="none" data-fui-icon="true" viewBox="0 0 12 12"><g clip-path="url(#a)"><path fill="currentColor" d="M9 6c-.25 0-.47.16-.547.397l-.502 1.554-1.554.503a.574.574 0 0 0 0 1.092l1.554.503.502 1.553a.575.575 0 0 0 1.093 0l.503-1.553 1.553-.503a.574.574 0 0 0 0-1.092l-1.553-.503-.503-1.554A.57.57 0 0 0 9 6M3.917 0A.75.75 0 0 0 3.2.52l-.6 1.844a.37.37 0 0 1-.236.237L.52 3.2a.754.754 0 0 0 0 1.432l1.845.6a.37.37 0 0 1 .235.236L3.2 7.313a.754.754 0 0 0 1.433 0l.6-1.844a.37.37 0 0 1 .236-.236l1.844-.6a.753.753 0 0 0 0-1.433L5.47 2.6a.37.37 0 0 1-.236-.236l-.6-1.843A.75.75 0 0 0 3.917 0"/></g><defs><clipPath id="a"><path fill="currentColor" d="M0 0h12v12H0z"/></clipPath></defs></svg>
